X:135
T:Red Coat Fifer
C:Harmony by N. Langer
M:2/4
L:1/8
K:D
V:1
d/B/|Ad d/c/d/e/|fe/d/ eA|Af/g/ ff/g/|ag/f/ ge|f/g/a/f/ df|
AB/c/ df/g/|ag/f/ ba/g/|Tfdd::z|a>g f/g/a|dd/e/ dA|
a>g f/g/a|aa/b/ a2|a>g f/g/a|dd/e/ df/g/|ag/f/ ba/g/|Tfdd:|
V:2
A/G/|F/D/F/A/ GB|dG/B/ GF|Fd/c/ d/c/B/c/|f/d/c/d/ e/A/B/c/|d/e/f/d/ Ad|
FG AB/c/|Ac/d/ Bd/e/|TAFF::z|F>E D/E/F|AA/B/ AF|
F>E D/E/F|A/G/A/B/ A/c/d|F>E D/E/F|AA/B/ AF|Ac/d/ Bd/e/|TAFF:|
